frontend/public/svg/weather/rain-light.svg

<svg width="160" height="136" viewBox="0 0 160 136" fill="none" xmlns="http://www.w3.org/2000/svg">
<g clip-path="url(#clip0)">
<path d="M99.3343 38.3444C100.705 37.3862 101.784 36.6023 102.892 35.8633C114.084 28.4014 126.167 26.9015 138.908 30.8093C154.36 35.5481 160.709 50.7884 159.385 63.0744C158.266 73.4901 153.144 81.9023 145.621 88.916C142.693 91.6444 138.926 93.1539 135.086 93.9265C128.076 95.3356 121.012 96.6043 113.912 97.4188C95.8203 99.4948 77.6201 99.3937 59.4434 99.6852C50.8992 99.8223 42.3784 99.6642 34.0344 97.5186C31.5442 96.8787 29.0647 96.1567 26.6448 95.291C13.184 90.4741 5.62161 80.4223 2.28085 66.9963C-0.85579 54.3947 -0.115497 41.8403 6.04357 30.3229C15.0026 13.5705 28.91 2.72458 48.1498 1.16775C65.4621 -0.23288 79.9396 6.45285 90.628 20.5457C94.6133 25.7958 97.3358 31.6504 99.3343 38.3444ZM63.6295 89.7069C68.0047 89.5296 72.3838 89.4246 76.7563 89.1621C91.3231 88.2872 105.879 87.2042 120.453 86.5223C125.834 86.2604 131.085 84.7751 135.805 82.1793C144.083 77.7543 148.182 70.7216 148.654 61.5047C149.179 51.252 143.707 42.8965 134.46 40.3827C123.86 37.5007 113.949 39.0703 105.394 46.3602C102.842 48.5347 100.65 51.1271 98.2645 53.5004C97.5281 54.3381 96.6814 55.0718 95.7475 55.6809C93.3531 57.0021 90.7508 56.0088 89.5825 53.5338C89.2714 52.8759 89.1033 52.1596 89.0902 51.4321C89.0771 50.7045 89.2182 49.9825 89.505 49.3137C90.8617 45.6586 90.3392 42.0508 89.123 38.4521C87.3234 33.3669 84.6271 28.6452 81.1623 24.5113C70.3577 11.1535 49.0599 6.91406 34.4308 15.1117C13.9439 26.5976 6.40545 44.9352 11.4763 66.0285C13.8844 76.0478 19.8118 83.3266 29.9778 86.4875C33.0789 87.4497 36.2376 88.2143 39.4354 88.7762C47.448 90.1893 55.5415 89.9149 63.6289 89.7062L63.6295 89.7069Z" fill="black"/>
<path d="M105.236 129.91C105.52 128.907 105.879 127.928 106.31 126.979C108.107 123.489 109.985 120.039 111.873 116.598C112.225 115.899 112.709 115.275 113.299 114.76C113.639 114.462 114.053 114.259 114.498 114.173C114.943 114.087 115.402 114.121 115.829 114.271C116.257 114.421 116.637 114.683 116.93 115.028C117.223 115.373 117.42 115.79 117.499 116.236C117.731 117.335 117.667 118.476 117.314 119.543C115.957 123.098 114.517 126.631 112.86 130.055C112.187 131.341 111.18 132.422 109.945 133.185C107.689 134.586 105.327 133.118 105.236 129.91Z" fill="black"/>
<path d="M37.6312 119.293C37.3929 120.006 37.1293 120.979 36.7486 121.904C35.4701 125.013 34.1642 128.111 32.8314 131.198C32.5052 132.03 32.0507 132.805 31.4841 133.495C30.9244 134.134 30.1636 134.564 29.3269 134.714C28.4904 134.864 27.6276 134.723 26.8811 134.318C26.207 133.894 25.714 133.235 25.4976 132.469C25.2812 131.703 25.3566 130.883 25.7094 130.169C27.8753 125.749 30.2469 121.426 32.6491 117.128C32.9554 116.575 33.4581 116.157 34.0579 115.957C34.6576 115.758 35.3106 115.79 35.8874 116.049C37.2966 116.541 37.559 117.724 37.6312 119.293Z" fill="black"/>
<path d="M69.5389 135.005C69.1399 135.022 68.7408 134.956 68.3687 134.811C67.9965 134.665 67.6585 134.443 67.3763 134.159C67.0941 133.877 66.8742 133.537 66.7305 133.164C66.5874 132.791 66.5231 132.392 66.5421 131.993C66.5742 131.205 66.781 130.433 67.1472 129.734C69.1858 126.13 71.2907 122.565 73.4061 119.006C73.6515 118.496 74.0532 118.079 74.5533 117.816C75.4315 117.527 76.6208 117.116 77.266 117.483C77.9223 117.857 78.2032 119.08 78.4074 119.986C78.5098 120.442 78.1107 121.036 77.8823 121.539C76.3609 124.902 74.7975 128.247 73.3043 131.623C72.5305 133.372 71.4115 134.65 69.5389 135.005Z" fill="black"/>
</g>
<defs>
<clipPath id="clip0">
<rect width="159.49" height="134.549" fill="white" transform="translate(0.078125 0.969727)"/>
</clipPath>
</defs>
</svg>

<svg xmlns="http://www.w3.org/2000/svg" width="160" height="136" fill="none" viewBox="0 0 160 136"><g fill="#000" clip-path="url(#a)"><path d="M99.334 38.344c1.371-.958 2.45-1.742 3.558-2.48 11.192-7.463 23.275-8.962 36.016-5.055 15.452 4.74 21.801 19.98 20.477 32.265-1.119 10.416-6.241 18.828-13.764 25.842-2.928 2.728-6.695 4.238-10.535 5.01-7.01 1.41-14.074 2.678-21.174 3.493-18.092 2.076-36.292 1.975-54.469 2.266-8.544.137-17.065-.02-25.409-2.166-2.49-.64-4.97-1.362-7.39-2.228-13.46-4.817-21.022-14.869-24.363-28.295C-.856 54.395-.115 41.84 6.044 30.323 15.003 13.57 28.91 2.725 48.15 1.168c17.312-1.4 31.79 5.285 42.478 19.378 3.985 5.25 6.708 11.104 8.706 17.798M63.63 89.707c4.375-.177 8.754-.282 13.126-.545 14.567-.875 29.123-1.958 43.697-2.64a35.4 35.4 0 0 0 15.352-4.343c8.278-4.425 12.377-11.457 12.849-20.674.525-10.253-4.947-18.608-14.194-21.122-10.6-2.882-20.511-1.313-29.066 5.977-2.552 2.175-4.744 4.767-7.13 7.14a12.3 12.3 0 0 1-2.516 2.18c-2.395 1.322-4.997.329-6.166-2.146a5.13 5.13 0 0 1-.077-4.22c1.357-3.655.834-7.263-.382-10.862a45.2 45.2 0 0 0-7.96-13.94C70.357 11.152 49.06 6.913 34.43 15.111 13.944 26.598 6.405 44.935 11.476 66.029c2.408 10.019 8.336 17.298 18.502 20.459a77 77 0 0 0 9.457 2.288c8.013 1.413 16.106 1.139 24.194.93m41.607 40.204a21 21 0 0 1 1.074-2.931c1.797-3.49 3.675-6.94 5.563-10.381a6.1 6.1 0 0 1 1.426-1.838 2.555 2.555 0 0 1 4.2 1.476 6.35 6.35 0 0 1-.185 3.307c-1.357 3.555-2.797 7.088-4.454 10.512a8.1 8.1 0 0 1-2.915 3.13c-2.256 1.401-4.618-.067-4.709-3.275m-67.605-10.617c-.238.713-.502 1.686-.882 2.611a579 579 0 0 1-3.918 9.294 8.5 8.5 0 0 1-1.347 2.297 3.75 3.75 0 0 1-4.603.823 3.22 3.22 0 0 1-1.172-4.149c2.166-4.42 4.538-8.743 6.94-13.041a2.523 2.523 0 0 1 3.238-1.079c1.41.492 1.672 1.675 1.744 3.244m31.908 15.712a2.9 2.9 0 0 1-1.17-.194 2.88 2.88 0 0 1-1.827-2.818c.032-.788.239-1.56.605-2.259 2.039-3.604 4.144-7.169 6.26-10.728a2.63 2.63 0 0 1 1.146-1.19c.879-.289 2.068-.7 2.713-.333.656.374.937 1.597 1.141 2.503.103.456-.296 1.05-.525 1.553-1.521 3.363-3.085 6.708-4.578 10.084-.773 1.749-1.892 3.027-3.765 3.382"/></g><defs><clipPath id="a"><path fill="#fff" d="M.078.97h159.49v134.549H.078z"/></clipPath></defs></svg>
